X: 5
T:-Broken Pledge, The
M:4/4
L:1/8
Q:180
R:March
K:G
dcAG AD D2|cAGF EC {D}(3CB,C|DEFG Add>c|(3ABA GB Adfe|
dcAG AD D2|c{d}c{B}cG EC {D}(3CB,C|DEFG Addc|(3ABA GE {G}ED D2::
dcAG ABde|f{a}f{e}fd ecAB|cAGE G2 cd|(3efg df ecAc|dcAG ABde|
fd {e}(3d^cd ecAG|F{G}F{E}FG Addc|(ABA GE {G}ED D2:|
